X: 2
%%measurenb 0
%%scale 0.7
T:Susanna fair
T:Treble recorder
C:William Byrd
M:C|
L:1/4
K:Fmaj
G2 c3 c c2 | z c2 d2 f e2 |d2 c2 z G A =B|
c2 d2 f e2 d-|d f c2 g f d2 |e2 z e g d f2|
e d2 G c2 B2 |A2 z2 z2 z c | B G A =B c3 c|
_B2 A2 G2 z f |e c d e f2 z f | e c d e f2 d2|
c3 =B/2A/2 B2 z d|d e d2 z g g a |g2 f e2 d e f-|
f e d2 z e e e |f>e d2 c2 z f| e2 d2 c2 z2|
z B A2 G2 F2-|F2 z c B2 G2 | HA8 |]
c2 f>e d2 z c | d/2e/2 f2 e f2 z f | e2 d2 c G c F |
B>c A2 z2 z A | c G B>c A2 z2 | z f e2 d2 c e |
g c f>g e2 z e | e d e f d2 z e | f2 d2 c4 |
z G c2 z c g2 | f2 e3 d e f | e d2 c2 =B/2A/2 B2 |
c4 z c =B>c | d e d2 z g e>f | g a g2d f2 e| 
d2 z c f2 e2 | d4 z c2 g-| g f e2 z c g2|
f2 e c d e f d | f>c e2 d c2 F| G2 A2 B2 G2 | HA8 |]

